shell/app/images/backlog-db.svg

<?xml version="1.0" encoding="UTF-8"?>
<svg width="239px" height="223px" viewBox="0 0 239 223" version="1.1" xmlns="http://www.w3.org/2000/svg" xmlns:xlink="http://www.w3.org/1999/xlink">
    <!-- Generator: Sketch 64 (93537) - https://sketch.com -->
    <title>Message Page/Components/页面崩溃</title>
    <desc>Created with Sketch.</desc>
    <defs>
        <rect id="path-1" x="0" y="0" width="240" height="240"></rect>
        <radialGradient cx="50%" cy="-29.7362992%" fx="50%" fy="-29.7362992%" r="129.736299%" gradientTransform="translate(0.500000,-0.297363),scale(0.328125,1.000000),rotate(90.000000),scale(1.000000,1.385870),translate(-0.500000,0.297363)" id="radialGradient-3">
            <stop stop-color="#E7E7E9" offset="0%"></stop>
            <stop stop-color="#E7E7E9" stop-opacity="0" offset="100%"></stop>
        </radialGradient>
        <linearGradient x1="50%" y1="-24.977938%" x2="50%" y2="41.640794%" id="linearGradient-4">
            <stop stop-color="#CDCED1" stop-opacity="0.5" offset="0%"></stop>
            <stop stop-color="#CDCED1" stop-opacity="0" offset="100%"></stop>
        </linearGradient>
        <linearGradient x1="50%" y1="0%" x2="50%" y2="59.7604305%" id="linearGradient-5">
            <stop stop-color="#CDCED1" stop-opacity="0.5" offset="0%"></stop>
            <stop stop-color="#CDCED1" stop-opacity="0" offset="100%"></stop>
        </linearGradient>
        <linearGradient x1="70.0776616%" y1="50.5770286%" x2="61.8116911%" y2="48.3224438%" id="linearGradient-6">
            <stop stop-color="#070A1A" stop-opacity="0.1" offset="0%"></stop>
            <stop stop-color="#070A1A" stop-opacity="0" offset="100%"></stop>
        </linearGradient>
        <linearGradient x1="39.451284%" y1="29.9280492%" x2="50%" y2="67.8261101%" id="linearGradient-7">
            <stop stop-color="#B5B6BB" offset="0%"></stop>
            <stop stop-color="#6A6C76" offset="100%"></stop>
        </linearGradient>
        <path d="M4.10823445,0 L107.233234,0 C109.822069,0 112.240407,1.95469273 112.634743,4.36592841 L124.058884,74.2207829 C124.45322,76.6320186 122.674227,78.5867113 120.085392,78.5867113 L16.9603923,78.5867113 C14.3715576,78.5867113 11.9532197,76.6320186 11.5588836,74.2207829 L0.134743226,4.36592841 C-0.259592929,1.95469273 1.51939969,0 4.10823445,0 Z" id="path-8"></path>
        <linearGradient x1="39.0387523%" y1="26.158992%" x2="59.3072564%" y2="76.6028872%" id="linearGradient-10">
            <stop stop-color="#F0F1F2" offset="0%"></stop>
            <stop stop-color="#B5B6BB" offset="100%"></stop>
        </linearGradient>
        <linearGradient x1="43.7969309%" y1="27.7777778%" x2="56.5832152%" y2="72.2222222%" id="linearGradient-11">
            <stop stop-color="#F5F5F6" offset="0%"></stop>
            <stop stop-color="#CDCED1" offset="100%"></stop>
        </linearGradient>
        <linearGradient x1="61.211544%" y1="47.6838548%" x2="50%" y2="52.3161452%" id="linearGradient-12">
            <stop stop-color="#FBFBFB" offset="0%"></stop>
            <stop stop-color="#F5F5F6" offset="100%"></stop>
        </linearGradient>
        <linearGradient x1="61.211544%" y1="49.0859974%" x2="50%" y2="50.9140026%" id="linearGradient-13">
            <stop stop-color="#FBFBFB" offset="0%"></stop>
            <stop stop-color="#F5F5F6" offset="100%"></stop>
        </linearGradient>
    </defs>
    <g id="0810-工单/耗时/代办事项/封网" stroke="none" stroke-width="1" fill="none" fill-rule="evenodd">
        <g id="代办事项" transform="translate(-449.000000, -267.000000)">
            <g id="编组-3" transform="translate(220.000000, 90.000000)">
                <g id="Message-Page/Components/欢迎登录" transform="translate(228.000000, 160.000000)">
                    <g>
                        <mask id="mask-2" fill="white">
                            <use xlink:href="#path-1"></use>
                        </mask>
                        <g id="矩形"></g>
                        <ellipse id="椭圆形" fill="url(#radialGradient-3)" mask="url(#mask-2)" cx="120" cy="200.625" rx="120" ry="39.375"></ellipse>
                        <circle id="椭圆形" fill="url(#linearGradient-4)" opacity="0.7" mask="url(#mask-2)" cx="28.59375" cy="69.84375" r="21.09375"></circle>
                        <circle id="椭圆形复制-3" fill="url(#linearGradient-5)" opacity="0.5" mask="url(#mask-2)" cx="223.59375" cy="127.96875" r="21.09375"></circle>
                        <circle id="椭圆形复制" fill="url(#linearGradient-5)" opacity="0.4" mask="url(#mask-2)" cx="73.59375" cy="55.3125" r="37.5"></circle>
                        <circle id="椭圆形复制-2" fill="url(#linearGradient-5)" opacity="0.4" mask="url(#mask-2)" cx="182.8125" cy="106.875" r="37.5"></circle>
                        <g id="编组-2" mask="url(#mask-2)">
                            <g transform="translate(-11.250000, 74.062500)">
                                <path d="M2.07096962,94.5956227 L105.19597,94.5956227 C107.784804,94.5956227 111.79502,95.0875965 114.153036,95.694477 L182.466104,113.276146 C184.82412,113.883026 184.637005,114.375 182.04817,114.375 L78.9231705,114.375 C76.3343357,114.375 72.3241203,113.883026 69.9661037,113.276146 L1.65303633,95.694477 C-0.704980252,95.0875965 -0.517865146,94.5956227 2.07096962,94.5956227 Z" id="矩形" fill="url(#linearGradient-6)"></path>
                                <g id="形状结合" stroke-width="1" fill="none" transform="translate(61.962778, 35.788289)">
                                    <mask id="mask-9" fill="white">
                                        <use xlink:href="#path-8"></use>
                                    </mask>
                                    <use id="蒙版" fill="url(#linearGradient-7)" xlink:href="#path-8"></use>
                                    <path d="M-19.3746981,25.0193011 C-21.9735402,25.0193011 -23.1929342,26.351687 -22.0982909,27.9952684 L9.61414055,75.6107441 C10.7087838,77.2543254 13.7029452,78.5867113 16.3017873,78.5867113 L119.825422,78.5867113 C122.424264,78.5867113 123.643658,77.2543254 122.549015,75.6107441 L86.0797187,20.852947 C84.9850754,19.2093657 81.990914,17.8769798 79.3920719,17.8769798 L56.8050971,17.8769798 C54.206255,17.8769798 52.986861,19.2093657 54.0815043,20.852947 L54.8743151,22.0433339 C55.9689583,23.6869152 54.7495643,25.0193011 52.1507223,25.0193011 L-19.3746981,25.0193011 Z" fill-opacity="0.1" fill="#070A1A" mask="url(#mask-9)"></path>
                                </g>
                                <path d="M64.8606705,12.83856 C68.1988862,12.83856 72.4678898,17.5386096 77.6676814,26.9387088 C82.867473,36.338808 86.3881652,49.6629628 88.2297581,66.9111734 L152.04817,66.9111734 C148.676071,37.8890384 144.33607,19.374002 139.028169,11.3660644 C133.720268,3.35812675 129.440921,-0.418328715 126.19013,0.0366980141 C115.28746,4.27760043 105.206553,7.36442469 95.9474099,9.29717079 C86.6882667,11.2299169 76.3260202,12.41038 64.8606705,12.83856 Z" id="路径-30" fill="url(#linearGradient-10)"></path>
                                <path d="M183.55068,39.9264706 C186.149522,39.9264706 188.585086,41.778234 188.990666,44.0625 L200.740529,110.238971 C201.146108,112.523237 199.368118,114.375 196.769276,114.375 L93.2456407,114.375 C90.6467987,114.375 88.2112339,112.523237 87.8056545,110.238971 L74.2933121,34.1360294 C73.8877327,31.8517634 75.6657234,30 78.2645654,30 L100.85154,30 C103.450382,30 105.885947,31.8517634 106.291526,34.1360294 L106.585273,35.7904412 C106.990852,38.0747071 109.426417,39.9264706 112.025259,39.9264706 L183.55068,39.9264706 Z" id="形状结合" fill="url(#linearGradient-11)" transform="translate(137.516920, 72.187500) scale(-1, 1) translate(-137.516920, -72.187500) "></path>
                                <path d="M153.684173,62.8125 L179.934173,62.8125 C182.264124,62.8125 183.786001,64.4914322 183.333381,66.5625 C182.88076,68.6335678 180.62504,70.3125 178.295089,70.3125 L152.045089,70.3125 C149.715137,70.3125 148.19326,68.6335678 148.645881,66.5625 C149.098501,64.4914322 151.354221,62.8125 153.684173,62.8125 Z" id="矩形" fill="url(#linearGradient-12)"></path>
                                <path d="M129.041131,79.6875 L175.916131,79.6875 C178.246083,79.6875 179.76796,81.3664322 179.315339,83.4375 C178.862719,85.5085678 176.606999,87.1875 174.277047,87.1875 L127.402047,87.1875 C125.072096,87.1875 123.550219,85.5085678 124.002839,83.4375 C124.45546,81.3664322 126.71118,79.6875 129.041131,79.6875 Z" id="矩形备份" fill="url(#linearGradient-13)"></path>
                            </g>
                        </g>
                    </g>
                </g>
            </g>
        </g>
    </g>
</svg>

<svg width="239" height="223" viewBox="0 0 239 223" xmlns="http://www.w3.org/2000/svg" xmlns:xlink="http://www.w3.org/1999/xlink"><defs><path id="a" d="M0 0h240v240H0z"/><radialGradient cy="-29.736%" fx="50%" fy="-29.736%" r="129.736%" gradientTransform="matrix(0 1 -.45474 0 .365 -.797)" id="b"><stop stop-color="#E7E7E9" offset="0%"/><stop stop-color="#E7E7E9" stop-opacity="0" offset="100%"/></radialGradient><linearGradient x1="50%" y1="-24.978%" x2="50%" y2="41.641%" id="d"><stop stop-color="#CDCED1" stop-opacity=".5" offset="0%"/><stop stop-color="#CDCED1" stop-opacity="0" offset="100%"/></linearGradient><linearGradient x1="50%" y1="0%" x2="50%" y2="59.76%" id="e"><stop stop-color="#CDCED1" stop-opacity=".5" offset="0%"/><stop stop-color="#CDCED1" stop-opacity="0" offset="100%"/></linearGradient><linearGradient x1="70.078%" y1="50.577%" x2="61.812%" y2="48.322%" id="f"><stop stop-color="#070A1A" stop-opacity=".1" offset="0%"/><stop stop-color="#070A1A" stop-opacity="0" offset="100%"/></linearGradient><linearGradient x1="39.451%" y1="29.928%" x2="50%" y2="67.826%" id="h"><stop stop-color="#B5B6BB" offset="0%"/><stop stop-color="#6A6C76" offset="100%"/></linearGradient><path d="M4.108 0h103.125c2.59 0 5.007 1.955 5.402 4.366l11.424 69.855c.394 2.411-1.385 4.366-3.974 4.366H16.96c-2.588 0-5.007-1.955-5.401-4.366L.135 4.366C-.26 1.955 1.519 0 4.108 0z" id="g"/><linearGradient x1="39.039%" y1="26.159%" x2="59.307%" y2="76.603%" id="j"><stop stop-color="#F0F1F2" offset="0%"/><stop stop-color="#B5B6BB" offset="100%"/></linearGradient><linearGradient x1="43.797%" y1="27.778%" x2="56.583%" y2="72.222%" id="k"><stop stop-color="#F5F5F6" offset="0%"/><stop stop-color="#CDCED1" offset="100%"/></linearGradient><linearGradient x1="61.212%" y1="47.684%" x2="50%" y2="52.316%" id="l"><stop stop-color="#FBFBFB" offset="0%"/><stop stop-color="#F5F5F6" offset="100%"/></linearGradient><linearGradient x1="61.212%" y1="49.086%" x2="50%" y2="50.914%" id="m"><stop stop-color="#FBFBFB" offset="0%"/><stop stop-color="#F5F5F6" offset="100%"/></linearGradient></defs><g transform="translate(-1 -17)" fill="none" fill-rule="evenodd"><mask id="c" fill="#fff"><use xlink:href="#a"/></mask><ellipse fill="url(#b)" mask="url(#c)" cx="120" cy="200.625" rx="120" ry="39.375"/><circle fill="url(#d)" opacity=".7" mask="url(#c)" cx="28.594" cy="69.844" r="21.094"/><circle fill="url(#e)" opacity=".5" mask="url(#c)" cx="223.594" cy="127.969" r="21.094"/><circle fill="url(#e)" opacity=".4" mask="url(#c)" cx="73.594" cy="55.313" r="37.5"/><circle fill="url(#e)" opacity=".4" mask="url(#c)" cx="182.813" cy="106.875" r="37.5"/><g mask="url(#c)"><path d="M2.071 94.596h103.125c2.589 0 6.599.492 8.957 1.098l68.313 17.582c2.358.607 2.171 1.099-.418 1.099H78.923c-2.589 0-6.599-.492-8.957-1.099L1.653 95.694c-2.358-.606-2.17-1.098.418-1.098z" fill="url(#f)" transform="translate(-11.25 74.063)"/><g transform="translate(50.713 109.85)"><mask id="i" fill="#fff"><use xlink:href="#g"/></mask><use fill="url(#h)" xlink:href="#g"/><path d="M-19.375 25.02c-2.599 0-3.818 1.332-2.723 2.975L9.614 75.611c1.095 1.643 4.089 2.976 6.688 2.976h103.523c2.6 0 3.819-1.333 2.724-2.976l-36.47-54.758c-1.094-1.644-4.088-2.976-6.687-2.976H56.805c-2.599 0-3.818 1.332-2.723 2.976l.792 1.19c1.095 1.644-.124 2.976-2.723 2.976h-71.526z" fill-opacity=".1" fill="#070A1A" mask="url(#i)"/></g><path d="M64.86 12.839c3.339 0 7.608 4.7 12.808 14.1 5.2 9.4 8.72 22.724 10.562 39.972h63.818c-3.372-29.022-7.712-47.537-13.02-55.545C133.72 3.358 129.441-.418 126.19.036c-10.903 4.242-20.983 7.328-30.243 9.261-9.259 1.933-19.621 3.113-31.086 3.542z" fill="url(#j)" transform="translate(-11.25 74.063)"/><path d="M183.55 39.926c2.6 0 5.035 1.852 5.44 4.136l11.75 66.177c.406 2.284-1.372 4.136-3.97 4.136H93.245c-2.6 0-5.035-1.852-5.44-4.136L74.293 34.136C73.888 31.852 75.666 30 78.265 30h22.587c2.598 0 5.034 1.852 5.44 4.136l.293 1.654c.406 2.285 2.841 4.136 5.44 4.136h71.526z" fill="url(#k)" transform="matrix(-1 0 0 1 263.784 74.063)"/><path d="M153.684 62.813h26.25c2.33 0 3.852 1.678 3.4 3.75-.453 2.07-2.709 3.75-5.039 3.75h-26.25c-2.33 0-3.852-1.68-3.4-3.75.454-2.072 2.71-3.75 5.04-3.75z" fill="url(#l)" transform="translate(-11.25 74.063)"/><path d="M129.041 79.688h46.875c2.33 0 3.852 1.678 3.4 3.75-.453 2.07-2.709 3.75-5.039 3.75h-46.875c-2.33 0-3.852-1.68-3.4-3.75.453-2.072 2.71-3.75 5.04-3.75z" fill="url(#m)" transform="translate(-11.25 74.063)"/></g></g></svg>
